assets/web/icons/block.svg

<svg width="24" height="24" viewBox="0 0 24 24" fill="none" xmlns="http://www.w3.org/2000/svg">
<path d="M12 22C10.6167 22 9.31667 21.7375 8.1 21.2125C6.88333 20.6875 5.825 19.975 4.925 19.075C4.025 18.175 3.3125 17.1167 2.7875 15.9C2.2625 14.6833 2 13.3833 2 12C2 10.6167 2.2625 9.31667 2.7875 8.1C3.3125 6.88333 4.025 5.825 4.925 4.925C5.825 4.025 6.88333 3.3125 8.1 2.7875C9.31667 2.2625 10.6167 2 12 2C13.3833 2 14.6833 2.2625 15.9 2.7875C17.1167 3.3125 18.175 4.025 19.075 4.925C19.975 5.825 20.6875 6.88333 21.2125 8.1C21.7375 9.31667 22 10.6167 22 12C22 13.3833 21.7375 14.6833 21.2125 15.9C20.6875 17.1167 19.975 18.175 19.075 19.075C18.175 19.975 17.1167 20.6875 15.9 21.2125C14.6833 21.7375 13.3833 22 12 22ZM12 20C14.2333 20 16.125 19.225 17.675 17.675C19.225 16.125 20 14.2333 20 12C20 11.1 19.8542 10.2333 19.5625 9.4C19.2708 8.56667 18.85 7.8 18.3 7.1L7.1 18.3C7.8 18.85 8.56667 19.2708 9.4 19.5625C10.2333 19.8542 11.1 20 12 20ZM5.7 16.9L16.9 5.7C16.2 5.15 15.4333 4.72917 14.6 4.4375C13.7667 4.14583 12.9 4 12 4C9.76667 4 7.875 4.775 6.325 6.325C4.775 7.875 4 9.76667 4 12C4 12.9 4.14583 13.7667 4.4375 14.6C4.72917 15.4333 5.15 16.2 5.7 16.9Z" fill="currentColor"/>
</svg>

<svg xmlns="http://www.w3.org/2000/svg" width="24" height="24" fill="currentColor" viewBox="0 0 24 24">
  <path d="M12 22a9.738 9.738 0 0 1-3.9-.788 10.099 10.099 0 0 1-3.175-2.137c-.9-.9-1.612-1.958-2.137-3.175A9.738 9.738 0 0 1 2 12a9.74 9.74 0 0 1 .788-3.9 10.099 10.099 0 0 1 2.137-3.175c.9-.9 1.958-1.612 3.175-2.137A9.738 9.738 0 0 1 12 2a9.74 9.74 0 0 1 3.9.788 10.098 10.098 0 0 1 3.175 2.137c.9.9 1.613 1.958 2.137 3.175A9.738 9.738 0 0 1 22 12a9.738 9.738 0 0 1-.788 3.9 10.098 10.098 0 0 1-2.137 3.175c-.9.9-1.958 1.613-3.175 2.137A9.738 9.738 0 0 1 12 22Zm0-2c2.233 0 4.125-.775 5.675-2.325C19.225 16.125 20 14.233 20 12c0-.9-.146-1.767-.438-2.6A7.951 7.951 0 0 0 18.3 7.1L7.1 18.3c.7.55 1.467.97 2.3 1.262.833.292 1.7.438 2.6.438Zm-6.3-3.1L16.9 5.7a7.95 7.95 0 0 0-2.3-1.263A7.813 7.813 0 0 0 12 4c-2.233 0-4.125.775-5.675 2.325C4.775 7.875 4 9.767 4 12c0 .9.146 1.767.438 2.6A7.95 7.95 0 0 0 5.7 16.9Z"/>
</svg>
